images/email.svg

<svg viewBox="0 0 18 14" xmlns="http://www.w3.org/2000/svg"><path d="m17.885 0h-1.885-14-1.754-.246v1.999 12.001h2 14 2v-11.889-2.111zm-2.057 2-6.824 6.64-6.731-6.64zm-4.793 7.153 2.67 2.847h-9.375l2.665-2.852 1.35 1.207c.176.173.423.207.664.207.238 0 .468-.126.643-.297zm-5.428-1.373-3.607 3.792v-7.511zm10.393 3.751-3.568-3.752 3.568-3.632z" fill="#444"/></svg>

<svg xmlns="http://www.w3.org/2000/svg" viewBox="0 0 18 14">
  <path fill="#444444" d="M17.885,0H16H2H0.246H0v1.999V14h2h14h2V2.111V0H17.885z M15.828,2L9.004,8.64L2.273,2H15.828z
     M11.035,9.153L13.705,12H4.33l2.665-2.852l1.35,1.207c0.176,0.173,0.423,0.207,0.664,0.207c0.238,0,0.468-0.126,0.643-0.297
    L11.035,9.153z M5.607,7.78L2,11.572V4.061L5.607,7.78z M16,11.531l-3.568-3.752L16,4.147V11.531z"/>
</svg>
